elementary-xfce/actions/16/document-import.svg

<?xml version="1.0" encoding="UTF-8" standalone="no"?>
<svg
   xmlns:dc="http://purl.org/dc/elements/1.1/"
   xmlns:cc="http://creativecommons.org/ns#"
   xmlns:rdf="http://www.w3.org/1999/02/22-rdf-syntax-ns#"
   xmlns:svg="http://www.w3.org/2000/svg"
   xmlns="http://www.w3.org/2000/svg"
   xmlns:xlink="http://www.w3.org/1999/xlink"
   width="16px"
   height="16px"
   id="svg3167"
   version="1.1">
  <defs
     id="defs3169">
    <linearGradient
       xlink:href="#linearGradient4087"
       id="linearGradient3107"
       gradientUnits="userSpaceOnUse"
       gradientTransform="matrix(0,-0.3060607,-0.32769183,0,16.460972,15.542814)"
       x1="38.940514"
       y1="15.991243"
       x2="20.576487"
       y2="15.991243" />
    <linearGradient
       id="linearGradient4087">
      <stop
         id="stop4089"
         style="stop-color:#ffffff;stop-opacity:1;"
         offset="0" />
      <stop
         offset="0.51153916"
         style="stop-color:#ffffff;stop-opacity:0.23529412;"
         id="stop4091" />
      <stop
         id="stop4093"
         style="stop-color:#ffffff;stop-opacity:0.15686275;"
         offset="0.58522105" />
      <stop
         id="stop4095"
         style="stop-color:#ffffff;stop-opacity:0.39215687;"
         offset="1" />
    </linearGradient>
    <linearGradient
       xlink:href="#linearGradient3671-580-6"
       id="linearGradient3110"
       gradientUnits="userSpaceOnUse"
       gradientTransform="matrix(-0.27961814,0,0,0.26116043,16.959475,1.4137441)"
       x1="23.731871"
       y1="4.4175272"
       x2="23.731871"
       y2="42.03978" />
    <linearGradient
       xlink:href="#linearGradient3707-662-8"
       id="linearGradient3112"
       gradientUnits="userSpaceOnUse"
       gradientTransform="matrix(-0.27961814,0,0,0.26116043,16.959475,1.4137441)"
       x1="35.998066"
       y1="37.038586"
       x2="35.998066"
       y2="4.0044417" />
    <radialGradient
       xlink:href="#linearGradient8662"
       id="radialGradient3102"
       gradientUnits="userSpaceOnUse"
       gradientTransform="matrix(1,0,0,0.536723,0,16.87306)"
       cx="24.837126"
       cy="36.421127"
       fx="24.837126"
       fy="36.421127"
       r="15.644737" />
    <linearGradient
       id="linearGradient8662">
      <stop
         style="stop-color:#000000;stop-opacity:1;"
         offset="0"
         id="stop8664" />
      <stop
         style="stop-color:#000000;stop-opacity:0;"
         offset="1"
         id="stop8666" />
    </linearGradient>
    <linearGradient
       xlink:href="#linearGradient3977"
       id="linearGradient3988"
       gradientUnits="userSpaceOnUse"
       gradientTransform="matrix(0.24324324,0,0,0.35135133,2.1621636,-0.43242804)"
       x1="23.99999"
       y1="5.5641499"
       x2="23.99999"
       y2="43" />
    <linearGradient
       id="linearGradient3977">
      <stop
         offset="0"
         style="stop-color:#ffffff;stop-opacity:1;"
         id="stop3979" />
      <stop
         id="stop3981"
         style="stop-color:#ffffff;stop-opacity:0.23529412;"
         offset="0.03626217" />
      <stop
         offset="0.95056331"
         style="stop-color:#ffffff;stop-opacity:0.15686275;"
         id="stop3983" />
      <stop
         offset="1"
         style="stop-color:#ffffff;stop-opacity:0.39215687;"
         id="stop3985" />
    </linearGradient>
    <linearGradient
       id="linearGradient3600">
      <stop
         id="stop3602"
         style="stop-color:#f4f4f4;stop-opacity:1"
         offset="0" />
      <stop
         id="stop3604"
         style="stop-color:#dbdbdb;stop-opacity:1"
         offset="1" />
    </linearGradient>
    <linearGradient
       id="linearGradient3104">
      <stop
         id="stop3106"
         style="stop-color:#a0a0a0;stop-opacity:1;"
         offset="0" />
      <stop
         id="stop3108"
         style="stop-color:#bebebe;stop-opacity:1;"
         offset="1" />
    </linearGradient>
    <linearGradient
       y2="47.013336"
       x2="25.132275"
       y1="0.98520643"
       x1="25.132275"
       gradientTransform="matrix(0.31428714,0,0,0.3259265,0.457108,-0.32223804)"
       gradientUnits="userSpaceOnUse"
       id="linearGradient3163"
       xlink:href="#linearGradient3600" />
    <linearGradient
       y2="2.9062471"
       x2="-51.786404"
       y1="50.786446"
       x1="-51.786404"
       gradientTransform="matrix(0.25378586,0,0,0.30501865,19.128979,-0.68547704)"
       gradientUnits="userSpaceOnUse"
       id="linearGradient3165"
       xlink:href="#linearGradient3104" />
    <linearGradient
       id="linearGradient3707-662-8">
      <stop
         id="stop4098-9"
         style="stop-color:#542f57;stop-opacity:1"
         offset="0" />
      <stop
         id="stop4100-6"
         style="stop-color:#bb5ca4;stop-opacity:1"
         offset="1" />
    </linearGradient>
    <linearGradient
       id="linearGradient3671-580-6">
      <stop
         id="stop4088-6"
         style="stop-color:#fc93dc;stop-opacity:1"
         offset="0" />
      <stop
         id="stop4090-4"
         style="stop-color:#da72d3;stop-opacity:1"
         offset="0.26238" />
      <stop
         id="stop4092-6"
         style="stop-color:#a33fab;stop-opacity:1"
         offset="0.704952" />
      <stop
         id="stop4094-2"
         style="stop-color:#502b58;stop-opacity:1"
         offset="1" />
    </linearGradient>
  </defs>
  <metadata
     id="metadata3172">
    <rdf:RDF>
      <cc:Work
         rdf:about="">
        <dc:format>image/svg+xml</dc:format>
        <dc:type
           rdf:resource="http://purl.org/dc/dcmitype/StillImage" />
        <dc:title />
      </cc:Work>
    </rdf:RDF>
  </metadata>
  <g
     id="layer1">
    <path
       style="fill:url(#linearGradient3163);fill-opacity:1;stroke:url(#linearGradient3165);stroke-width:0.99992192;stroke-linecap:butt;stroke-linejoin:round;stroke-miterlimit:4;stroke-opacity:1;stroke-dasharray:none;stroke-dashoffset:0;display:inline"
       id="path4160"
       d="m 2.4999621,0.49997396 c 2.5206756,0 11.0000629,9.54e-4 11.0000629,9.54e-4 l 1.3e-5,14.99909804 c 0,0 -7.3333841,0 -11.0000759,0 0,-5.000017 0,-10.000035 0,-15.00005204 z" />
    <path
       style="fill:none;stroke:url(#linearGradient3988);stroke-width:1;stroke-linecap:round;stroke-linejoin:miter;stroke-miterlimit:4;stroke-opacity:1;stroke-dasharray:none;stroke-dashoffset:0"
       d="m 12.5,14.5 -9.0000001,0 0,-13 L 12.5,1.5 z"
       id="rect6741-1" />
    <path
       transform="matrix(0.25567703,0,0,-0.35727499,5.6290428,23.012345)"
       d="m 40.481863,36.421127 a 15.644737,8.3968935 0 1 1 -31.2894745,0 15.644737,8.3968935 0 1 1 31.2894745,0 z"
       id="path3501"
       style="opacity:0.14117647;fill:url(#radialGradient3102);fill-opacity:1;fill-rule:evenodd;stroke:none;stroke-width:1;marker:none;visibility:visible;display:inline;overflow:visible" />
    <path
       style="fill:url(#linearGradient3110);fill-opacity:1;fill-rule:nonzero;stroke:url(#linearGradient3112);stroke-width:0.96392483;stroke-linecap:butt;stroke-linejoin:round;stroke-miterlimit:7;stroke-opacity:1;stroke-dasharray:none;stroke-dashoffset:0;marker:none;visibility:visible;display:block;overflow:visible"
       d="M 12.678889,11.518038 C 16.229314,9.1129984 14.096681,4.5 10.478963,4.5 l 0,-1.9108774 L 5.4789624,6.16055 10.478963,9.5 l 0,-2 c 2.552377,-0.09933 3.668165,2.3398839 1.843474,4.018038 z"
       id="path3503" />
    <path
       id="path3505"
       d="M 13.360898,10.273947 C 14.613367,8.8033321 13.485545,4.9635394 9.4789626,5.4887773 l 0,-0.9887773 -2.3301492,1.66055 2.3301492,1.5093014 0,-0.7916852 C 13.875758,6.6430485 13.735049,9.6794539 13.360898,10.273947 z"
       style="opacity:0.52999998;fill:none;stroke:url(#linearGradient3107);stroke-width:0.96392483;stroke-linecap:butt;stroke-linejoin:miter;stroke-miterlimit:7;stroke-opacity:1;stroke-dasharray:none;stroke-dashoffset:0;marker:none;visibility:visible;display:block;overflow:visible" />
  </g>
</svg>

<?xml version="1.0" encoding="UTF-8" standalone="no"?>
<svg
   id="svg3810"
   height="16"
   width="16"
   version="1.1"
   sodipodi:docname="document-import.svg"
   inkscape:version="1.2.2 (b0a8486541, 2022-12-01)"
   xmlns:inkscape="http://www.inkscape.org/namespaces/inkscape"
   xmlns:sodipodi="http://sodipodi.sourceforge.net/DTD/sodipodi-0.dtd"
   xmlns:xlink="http://www.w3.org/1999/xlink"
   xmlns="http://www.w3.org/2000/svg"
   xmlns:svg="http://www.w3.org/2000/svg"
   xmlns:rdf="http://www.w3.org/1999/02/22-rdf-syntax-ns#"
   xmlns:cc="http://creativecommons.org/ns#"
   xmlns:dc="http://purl.org/dc/elements/1.1/">
  <sodipodi:namedview
     id="namedview18495"
     pagecolor="#ffffff"
     bordercolor="#000000"
     borderopacity="0.25"
     inkscape:showpageshadow="2"
     inkscape:pageopacity="0.0"
     inkscape:pagecheckerboard="0"
     inkscape:deskcolor="#d1d1d1"
     showgrid="false"
     inkscape:zoom="18.959301"
     inkscape:cx="12.02576"
     inkscape:cy="14.45201"
     inkscape:window-width="1278"
     inkscape:window-height="1035"
     inkscape:window-x="962"
     inkscape:window-y="41"
     inkscape:window-maximized="0"
     inkscape:current-layer="svg3810" />
  <defs
     id="defs3812">
    <linearGradient
       gradientTransform="matrix(0.24324324,0,0,0.35135133,2.1621636,-0.43242804)"
       gradientUnits="userSpaceOnUse"
       xlink:href="#linearGradient3977"
       id="linearGradient3988"
       y2="41.589603"
       x2="23.99999"
       y1="6.2052388"
       x1="23.99999" />
    <linearGradient
       id="linearGradient3977">
      <stop
         offset="0"
         style="stop-color:#ffffff;stop-opacity:1"
         id="stop3979" />
      <stop
         offset="0.02929282"
         style="stop-color:#ffffff;stop-opacity:0.23529412"
         id="stop3981" />
      <stop
         offset="0.97230476"
         style="stop-color:#ffffff;stop-opacity:0.15686275"
         id="stop3983" />
      <stop
         offset="1"
         style="stop-color:#ffffff;stop-opacity:0.39215687"
         id="stop3985" />
    </linearGradient>
    <linearGradient
       id="linearGradient3600">
      <stop
         offset="0"
         style="stop-color:#f4f4f4;stop-opacity:1"
         id="stop3602" />
      <stop
         offset="1"
         style="stop-color:#dbdbdb;stop-opacity:1"
         id="stop3604" />
    </linearGradient>
    <linearGradient
       gradientTransform="matrix(0.28571361,0,0,0.30419701,1.1428727,0.2326048)"
       gradientUnits="userSpaceOnUse"
       xlink:href="#linearGradient3600"
       id="linearGradient3806"
       y2="47.013336"
       x2="25.132275"
       y1="0.98520643"
       x1="25.132275" />
    <linearGradient
       id="linearGradient3104-9">
      <stop
         offset="0"
         style="stop-color:#000000;stop-opacity:0.33950618"
         id="stop3106-5" />
      <stop
         offset="1"
         style="stop-color:#000000;stop-opacity:0.24691358"
         id="stop3108-5" />
    </linearGradient>
    <linearGradient
       gradientTransform="matrix(0.25378586,0,0,0.30501865,19.128979,-0.68547704)"
       gradientUnits="userSpaceOnUse"
       xlink:href="#linearGradient3104-9"
       id="linearGradient3019"
       y2="2.9062471"
       x2="-51.786404"
       y1="50.786446"
       x1="-51.786404" />
    <linearGradient
       id="linearGradient8662">
      <stop
         style="stop-color:#000000;stop-opacity:1;"
         offset="0"
         id="stop8664" />
      <stop
         style="stop-color:#000000;stop-opacity:0;"
         offset="1"
         id="stop8666" />
    </linearGradient>
    <linearGradient
       id="linearGradient4087">
      <stop
         id="stop4089"
         style="stop-color:#ffffff;stop-opacity:1;"
         offset="0" />
      <stop
         offset="0.51153916"
         style="stop-color:#ffffff;stop-opacity:0.23529412;"
         id="stop4091" />
      <stop
         id="stop4093"
         style="stop-color:#ffffff;stop-opacity:0.15686275;"
         offset="0.58522105" />
      <stop
         id="stop4095"
         style="stop-color:#ffffff;stop-opacity:0.39215687;"
         offset="1" />
    </linearGradient>
    <radialGradient
       xlink:href="#linearGradient8662"
       id="radialGradient3102-3"
       gradientUnits="userSpaceOnUse"
       gradientTransform="matrix(0.25567703,0,0,-0.1917577,5.6290063,16.983817)"
       cx="24.837126"
       cy="36.421127"
       fx="24.837126"
       fy="36.421127"
       r="15.644737" />
    <linearGradient
       xlink:href="#linearGradient3671-580-6"
       id="linearGradient3110-2"
       gradientUnits="userSpaceOnUse"
       gradientTransform="matrix(-0.27961814,0,0,0.26116043,16.959439,1.4135386)"
       x1="23.731871"
       y1="4.4175272"
       x2="23.731871"
       y2="42.03978" />
    <linearGradient
       id="linearGradient3671-580-6">
      <stop
         id="stop4088-6"
         style="stop-color:#fc93dc;stop-opacity:1"
         offset="0" />
      <stop
         id="stop4090-4"
         style="stop-color:#da72d3;stop-opacity:1"
         offset="0.26238" />
      <stop
         id="stop4092-6"
         style="stop-color:#a33fab;stop-opacity:1"
         offset="0.704952" />
      <stop
         id="stop4094-2"
         style="stop-color:#502b58;stop-opacity:1"
         offset="1" />
    </linearGradient>
    <linearGradient
       xlink:href="#linearGradient3707-662-8"
       id="linearGradient3112-9"
       gradientUnits="userSpaceOnUse"
       gradientTransform="matrix(-0.27961814,0,0,0.26116043,16.959439,1.4135386)"
       x1="35.998066"
       y1="37.038586"
       x2="35.998066"
       y2="4.0044417" />
    <linearGradient
       id="linearGradient3707-662-8">
      <stop
         id="stop4098-9"
         style="stop-color:#542f57;stop-opacity:1"
         offset="0" />
      <stop
         id="stop4100-6"
         style="stop-color:#bb5ca4;stop-opacity:1"
         offset="1" />
    </linearGradient>
    <linearGradient
       xlink:href="#linearGradient4087"
       id="linearGradient3107-1"
       gradientUnits="userSpaceOnUse"
       gradientTransform="matrix(0,-0.3060607,-0.32769183,0,16.460936,15.542608)"
       x1="38.940514"
       y1="15.991243"
       x2="20.576487"
       y2="15.991243" />
  </defs>
  <metadata
     id="metadata3815">
    <rdf:RDF>
      <cc:Work
         rdf:about="">
        <dc:format>image/svg+xml</dc:format>
        <dc:type
           rdf:resource="http://purl.org/dc/dcmitype/StillImage" />
      </cc:Work>
    </rdf:RDF>
  </metadata>
  <path
     d="m 3,1 c 2.2915074,0 9.999988,8.904e-4 9.999988,8.904e-4 L 13,15 C 13,15 6.3333332,15 3,15 3,10.333334 3,5.6666664 3,1 Z"
     id="path4160"
     style="display:inline;fill:url(#linearGradient3806);fill-opacity:1;stroke:none" />
  <path
     d="m 12.5,14.5 -9.0000001,0 0,-13 L 12.5,1.5 Z"
     id="rect6741-1"
     style="fill:none;stroke:url(#linearGradient3988);stroke-width:1;stroke-linecap:round;stroke-linejoin:miter;stroke-miterlimit:4;stroke-dasharray:none;stroke-dashoffset:0;stroke-opacity:1" />
  <path
     d="m 2.4999621,0.49997396 c 2.5206756,0 11.0000629,9.54e-4 11.0000629,9.54e-4 l 1.3e-5,14.99909804 c 0,0 -7.3333841,0 -11.000076,0 0,-5.000017 0,-10.000035 0,-15.00005204 z"
     id="path4160-8"
     style="display:inline;fill:none;stroke:url(#linearGradient3019);stroke-width:0.99992192;stroke-linecap:butt;stroke-linejoin:round;stroke-miterlimit:4;stroke-dasharray:none;stroke-dashoffset:0;stroke-opacity:1" />
  <path
     d="m 15.979289,9.9997814 a 4.0000001,3.0000003 0 1 0 -8.0000001,0 4,3.0000003 0 1 0 8.0000001,0 z"
     id="path3501"
     style="display:inline;overflow:visible;visibility:visible;opacity:0.141176;fill:url(#radialGradient3102-3);fill-opacity:1;fill-rule:evenodd;stroke:none;stroke-width:0.302237;marker:none" />
  <path
     style="display:block;overflow:visible;visibility:visible;fill:url(#linearGradient3110-2);fill-opacity:1;fill-rule:nonzero;stroke:url(#linearGradient3112-9);stroke-width:0.963925;stroke-linecap:butt;stroke-linejoin:round;stroke-miterlimit:7;stroke-dasharray:none;stroke-dashoffset:0;stroke-opacity:1;marker:none"
     d="M 12.678853,11.517832 C 16.229278,9.1127929 14.096645,4.4997945 10.478927,4.4997945 V 2.5889171 l -5.0000011,3.5714274 5.0000011,3.33945 v -2 c 2.552377,-0.09933 3.668165,2.3398839 1.843474,4.0180375 z"
     id="path3503" />
  <path
     id="path3505"
     d="M 13.360862,10.273741 C 14.613331,8.8031266 13.485509,4.9633339 9.478927,5.4885718 V 4.4997945 L 7.1487769,6.1603445 9.478927,7.6696459 V 6.8779607 c 4.396795,-0.2351177 4.256086,2.8012877 3.881935,3.3957803 z"
     style="display:block;overflow:visible;visibility:visible;opacity:0.53;fill:none;stroke:url(#linearGradient3107-1);stroke-width:0.963925;stroke-linecap:butt;stroke-linejoin:miter;stroke-miterlimit:7;stroke-dasharray:none;stroke-dashoffset:0;stroke-opacity:1;marker:none" />
</svg>
